X:1
T:Dialogo d'amante
T:Dialogo d'amante
T:Giovanni Ghizzolo
C:Giovanni Ghizzolo
%%score [ 1 2 ] { ( 3 5 ) | 4 }
L:1/8
Q:1/4=120
M:4/4
K:F
V:1 treble-8 nm="Tenor Soprano"
V:2 treble-8 nm="Tenor" snm="T"
V:3 treble nm="MusicXML Part"
V:5 treble 
V:4 bass 
V:1
"^Source: Madrigali et Arie---Libro secondo---Venetia---A.Raverij---1609.\nEditor: André Vierendeels (09/11/08)\nContinuo: André Vierendeels""^AMANTE" G8 | %1
w: Don-|
 G4 z d B>A | cA G>F G4 | A8 | z d B>A c4- | c2 d2 ^F4 | G8 | z c B>A cFGA | B3 G G4 | A8 | %10
w: na ch'in voi d'a-|mor le fa- ci'ha spen-|te?|Chi mor- to'hal mio|_ gio- i-|te?|chi scos- so'ha de bei rag- g'il|sol lu- cen-|te?|
"^DONNA" z d' b>a c'3 f | g4 g4 | z gga b3 g | a4 a4 | d'2 c'b c'3 a | b2 g2 a4- | a2 a2 a4 | %17
w: Il tuo sfre- na- to'ar-|di- re|o- gni di- let- to|sgom- bra|re- s'ha la fiam- ma'un|giel la lu-|* ce'un om-|
 g8"^AMANTE" | _e8 | d4 z =BBB | c2 cA B2 G2- | G2 GA F4 | G4 z2 _e2- | e2 d2 d2 cc | c3 B B2 A2 | %25
w: bra.|Las-|so, che far pos-|s'i- o s'A- mor sfer-|* za'il de- si-|o? Du-|* ra le- ge d'a-|mor che'l mon- do|
 A8 |[M:2/4] G4"^DONNA" | z2 =b2 |[M:4/4] c'4 a2 gf | g4 b4- | b2 ee e4 | d8 | %32
w: sfor-|za.|A-|mor con- tra ra-|gion per-|* de sua for-|za.|
"^AMANTE" z2 B2 c2 BA | A4 B4- | BFFF G4 | A8"^DONNA" | z2 c'a c'2 gf | g4 g4 | z2 b4 aa | %39
w: Che fia se ra-|gion tem|_ pra'il vo- ler mi-|o?|Nel mio sen nel tuo|co- re|vi- ta'o- ve|
 ad'c'b _e'4- | e'2 a2 a4 | g8 ||"^DONNA" z2 ee ^f2 a2- | agg^f g3 d | e2 e2 z2 c'a | %45
w: mor- t'e do- v'e sdeg-|* no'A- mo-|re.|Spie- ghi'A- mor dun-|* qua'un bel pen- sier le|pium- me, e s'a-|
 d'2 aa b2 g2 | a2 f2 g4 | f2 fd g2 ee | ^f2 f2 g2 b2 | a4 g2 d'b | e'2 c'c' d'2 b2 | %51
w: ni- ni la gio- ia'el|fo- co'el lum-|me, e s'a- ni- ni la|gio- ia'el fo- co'el|lum- me, e s'a-|ni- ni la gio- ia,|
 z2 c'a d'2 aa | b2 g2 a2 b2 | g>a b>c' a4 | g8 |] %55
w: e s'a- ni- ni la|gio- ia'el fo- co'el|lum- * * * *|me.|
V:2
 z8 | z8 | z8 | z8 | z8 | z8 | z8 | z8 | z8 | z8 | z8 | z8 | z8 | z8 | z8 | z8 | z8 | z8 | z8 | %19
w: |||||||||||||||||||
 z8 | z8 | z8 | z8 | z8 | z8 | z8 |[M:2/4] z4 | z4 |[M:4/4] z8 | z8 | z8 | z8 | z8 | z8 | z8 | z8 | %36
w: |||||||||||||||||
 z8 | z8 | z8 | z8 | z8 | z8 ||"^AMANTE" z4 z2 AA | =B2 d3 ccB | c3 G A2 A2 | z2 FD G2 EE | %46
w: ||||||Spie- ghi'A-|mor dun- qua'un bel pen-|sier le pium- me,|e s'a- ni- ni la|
 F2 D2 E2 C2 | D4 C2 cA | d2 AA B2 G2 | A2 ^F2 G4 | G2 AF B2 GG | A2 F2 z2 FD | G2 EE F2 D2 | %53
w: gio- ia'el fo- co'el|lum- me, e s'a-|ni- ni la gio- ia'el|fo- co'el lum-|mi, e s'a- ni- ni la|gio- ia, e s'a-|ni- ni la gio- ia'el|
 EF G3 G ^F2 | G8 |] %55
w: fo- * * co'el lu-|me.|
V:3
 [DG]8- | [DG]8 | G2 A4 [A^c]2 | [^FAd]8 | [DFA]4 [DA]4 | [FAd]8 | [EGc]6 F2 | [EGc]8 | %8
 [GBd]4 [Gc]4 | [D^FA]8 | [FA]4 [Gc]2 [Ac]2 | [EGc]8 | [DGB]8 | [D^FA]8 | [FAd]4 [Ac]4 | %15
 [DB]2 [Gc]2 [Fc]4 | [EAc]2 [CA]2 [D^FA]4 | [DGB]8 | [_EB]8 | [DA]4 [DG=B]4 | [Gc]2 [FAc]2 [DGB]4 | %21
 [EGc]2 [EAc]2 [DA]4 | [EGc]4 [CGc]4 | [D-GB-]8 | [DGB]8 | [D^FA]8 |[M:2/4] [D-G=B-]4 | [DGB]4 | %28
[M:4/4] [Gc]4 [Fc]4 | [Ec]4 [GB]4 | [Ec]8 | [^FAd]8 | [DGB]4 [Ad]4 | [FAc]4 [DB]4 | [DA]4 [GB]4 | %35
 [^FAd]8 | [FA]4 [EA]4 | [EGc]8 | [DGB]8 | [FA]4 [Gc]4 | [^FAd]8 | [G=Bd]8 || [EAc]4 [^FA]4 | %43
 [D=B]8 | [EGc]4 [FAc]4 | [DG]6 [EG]2 | [FA]2 B2 [EB]2 AG | [DFB]4 [EG]4 | [D^FA]4 [DGB]4 | %49
 [^FA]4 [DB]4 | [Gc]2 [Ac]2 [FB]2 [GB]2 | [FA]4 [FB]2 [FA]2 | [DG]2 [Gc]2 [Ac]2 [DB]2 | %53
 [EGc]4 ^FGAd | [DG=B]8 |] %55
V:4
 G,8 | G,,4 G,4 |"^6       7        7       6#" E,2 E,2 E,2 E,2 |"^#" D,4 D,,4 | D,4 A,,4 | D,8 | %6
 C,4 C,,4 | C,8 | G,,4 _E,4 | D,8 | D,4 E,2 F,2 | C,4 C,,4 | G,,8 | D,4 D,,4 | D,4 A,2 G,F, | %15
 G,2 E,2 F,2 E,D, |"^6      4      3#" C,2 E,2 D,4 | G,,8 | G,,8 | %19
"^2-natural" G,,4"^-natural" G,4 | E,2 F,2 B,,4 | C,2 A,,2 D,4 | C,8 | G,,8- | G,,8 | D,8 | %26
[M:2/4] G,,4 | G,4 |[M:4/4] E,4 F,4 | C,4 G,,4 | A,,8 | D,4 D,,4 | G,,4 D,4 | F,,4 G,,4 | %34
 D,4 _E,4 | D,4 D,,4 | D,4 A,,4 | C,8 | G,,8 | D,4 C,4 | D,8 | G,,8 || A,,4 D,4 | G,,4 G,4 | %44
 C,4 F,4 | B,,2 D,2 G,,2 C,2 | F,,2 B,,2 G,,2 A,,2 | B,,4 C,4 | D,4 G,,4 | D,4 G,,4 | %50
 C,2 F,2 B,,2 _E,2 |"^Note: original keys: Ut 1st, Ut 4rth, Fa 4rth" F,4 B,,2 D,2 | %52
 G,,2 C,2 F,,2 G,,2 | C,4 D,4 | G,,8 |] %55
V:5
 x8 | x8 | x8 | x8 | x8 | x8 | x8 | x8 | x8 | x8 | x8 | x8 | x8 | x8 | x8 | x8 | x8 | x8 | x8 | %19
 x8 | x8 | x8 | x8 | x8 | x8 | x8 |[M:2/4] x4 | x4 |[M:4/4] x8 | x8 | x8 | x8 | x8 | x8 | x8 | x8 | %36
 x8 | x8 | x8 | x8 | x8 | x8 || x8 | x8 | x8 | x8 | F2 [DF]2 E2 E2 | x8 | x8 | x8 | x8 | x8 | x8 | %53
 x8 | x8 |] %55

